build/img/landings/express-smm/exp-yl-2.svg

<svg width="695" height="566" fill="none" xmlns="http://www.w3.org/2000/svg"><g clip-path="url(#clip0)"><path d="M523.602 173.396l-323.2 270.533 198.53 237.363 323.201-270.533-198.531-237.363z" fill="#FFB3B3" stroke="#000" stroke-width="7" stroke-linecap="round" stroke-linejoin="round"/><path d="M425.165 164.115l-323.2 270.533 198.53 237.363 323.2-270.533-198.53-237.363z" fill="#FFB3B3" stroke="#000" stroke-width="7" stroke-linecap="round" stroke-linejoin="round"/><path d="M338.274 162.353l-323.2 270.533 198.53 237.363 323.2-270.534-198.53-237.362z" fill="#FFB3B3" stroke="#000" stroke-width="7" stroke-linecap="round" stroke-linejoin="round"/><path d="M2.259 200.839l270.429 323.324 237.27-198.606L239.529 2.232 2.259 200.84z" fill="#3092F7" stroke="#000" stroke-width="7" stroke-linecap="round" stroke-linejoin="round"/><path d="M56.314 215.453L76 238.989l175.127-146.59-19.685-23.536-175.128 146.59zm31.168 37.254l19.686 23.536 83.488-69.883-19.686-23.536-83.488 69.883z" fill="#FFB3B3" stroke="#000" stroke-width="7" stroke-linecap="round" stroke-linejoin="round"/><path d="M276.218 277.901l-.273.362v-.362h.273z" fill="#FFD400" stroke="#000" stroke-width="7" stroke-linecap="round" stroke-linejoin="round"/><path d="M697.392 277.901v309.492H275.945v-309.13l.273-.362 40.606-56.192h113.56l40.606 56.192h226.402z" fill="#FFD400" stroke="#000" stroke-width="7" stroke-linecap="round" stroke-linejoin="round"/><path d="M641.704 132.297l-323.2 270.533 198.53 237.362 323.2-270.533-198.53-237.362z" fill="#FF5050" stroke="#000" stroke-width="7" stroke-linecap="round" stroke-linejoin="round"/><path d="M627.094 186.391l-23.528 19.693L750.1 381.279l23.527-19.694-146.533-175.194zm-37.242 31.173l-23.528 19.693 69.857 83.521 23.527-19.694-69.856-83.52zm-137.45 109.524l-23.527 19.693 146.533 175.195 23.528-19.693-146.534-175.195z" fill="#FFB3B3" stroke="#000" stroke-width="7" stroke-linecap="round" stroke-linejoin="round"/><path d="M697.371 587.387H275.957l102.125-220.928h421.414L697.371 587.387z" fill="#FFD400" stroke="#000" stroke-width="7" stroke-linecap="round" stroke-linejoin="round"/><path d="M196.974 390.196l19.686 23.536 175.128-146.589-19.686-23.537-175.128 146.59z" fill="#FFB3B3" stroke="#000" stroke-width="7" stroke-linecap="round" stroke-linejoin="round"/><path d="M898.777 295.854H558.098L728.437 10.676l170.34 285.178z" fill="#FFD400" stroke="#000" stroke-width="7" stroke-linecap="round" stroke-linejoin="round"/><path d="M728.806 106.378a35.127 35.127 0 0124.845 10.295 35.158 35.158 0 0110.291 24.855c0 19.408-35.136 70.446-35.136 70.446s-35.13-51.038-35.13-70.446a35.15 35.15 0 0121.685-32.475 35.124 35.124 0 0113.445-2.675z" fill="#000"/><path d="M636.172 422.697l-23.621 19.641 146.141 175.893 23.621-19.64-146.141-175.894z" fill="#FFB3B3" stroke="#000" stroke-width="7.009" stroke-linecap="round" stroke-linejoin="round"/><path d="M476.215 463.71l-23.527 19.694 146.533 175.195 23.527-19.694L476.215 463.71zm121.332-12.694l-23.527 19.693 69.856 83.52 23.527-19.693-69.856-83.52z" fill="#FFB3B3" stroke="#000" stroke-width="7" stroke-linecap="round" stroke-linejoin="round"/><path d="M211.712 736.776c75.39 0 136.506-61.139 136.506-136.558 0-75.419-61.116-136.558-136.506-136.558-75.389 0-136.505 61.139-136.505 136.558 0 75.419 61.116 136.558 136.505 136.558z" fill="#FF5050" stroke="#000" stroke-width="7" stroke-linecap="round" stroke-linejoin="round"/><path d="M240.321 600.205l44.018 44.041-28.606 28.661-44.024-44.041-44.011 44.041-28.612-28.661 44.017-44.041-44.017-44.034 28.612-28.617 44.011 44.034 44.024-44.034 28.606 28.617-44.018 44.034z" fill="#FFF9DE" stroke="#000" stroke-width="7" stroke-linecap="round" stroke-linejoin="round"/></g><defs><clipPath id="clip0"><path fill="#fff" d="M0 0h901v739H0z"/></clipPath></defs></svg>

<svg width="695" height="566" viewBox="0 0 695 566" fill="none" xmlns="http://www.w3.org/2000/svg">
<g clip-path="url(#clip0)">
<path d="M523.602 173.396L200.402 443.929L398.932 681.292L722.133 410.759L523.602 173.396Z" fill="#FFB3B3" stroke="black" stroke-width="7" stroke-linecap="round" stroke-linejoin="round"/>
<path d="M425.165 164.115L101.965 434.648L300.495 672.011L623.695 401.478L425.165 164.115Z" fill="#FFB3B3" stroke="black" stroke-width="7" stroke-linecap="round" stroke-linejoin="round"/>
<path d="M338.274 162.353L15.0742 432.886L213.604 670.249L536.804 399.715L338.274 162.353Z" fill="#FFB3B3" stroke="black" stroke-width="7" stroke-linecap="round" stroke-linejoin="round"/>
<path d="M2.25851 200.839L272.688 524.163L509.958 325.557L239.529 2.23205L2.25851 200.839Z" fill="#3092F7" stroke="black" stroke-width="7" stroke-linecap="round" stroke-linejoin="round"/>
<path d="M56.3141 215.453L76 238.989L251.127 92.3997L231.442 68.8633L56.3141 215.453Z" fill="#FFB3B3" stroke="black" stroke-width="7" stroke-linecap="round" stroke-linejoin="round"/>
<path d="M87.4821 252.707L107.168 276.243L190.656 206.36L170.97 182.824L87.4821 252.707Z" fill="#FFB3B3" stroke="black" stroke-width="7" stroke-linecap="round" stroke-linejoin="round"/>
<path d="M276.218 277.901L275.945 278.263V277.901H276.218Z" fill="#FFD400" stroke="black" stroke-width="7" stroke-linecap="round" stroke-linejoin="round"/>
<path d="M697.392 277.901V587.393H275.945V278.263L276.218 277.901L316.824 221.709H430.384L470.99 277.901H697.392Z" fill="#FFD400" stroke="black" stroke-width="7" stroke-linecap="round" stroke-linejoin="round"/>
<path d="M641.704 132.297L318.504 402.83L517.034 640.192L840.234 369.659L641.704 132.297Z" fill="#FF5050" stroke="black" stroke-width="7" stroke-linecap="round" stroke-linejoin="round"/>
<path d="M627.094 186.391L603.566 206.084L750.1 381.279L773.627 361.585L627.094 186.391Z" fill="#FFB3B3" stroke="black" stroke-width="7" stroke-linecap="round" stroke-linejoin="round"/>
<path d="M589.852 217.564L566.324 237.257L636.181 320.778L659.708 301.084L589.852 217.564Z" fill="#FFB3B3" stroke="black" stroke-width="7" stroke-linecap="round" stroke-linejoin="round"/>
<path d="M452.402 327.088L428.875 346.781L575.408 521.976L598.936 502.283L452.402 327.088Z" fill="#FFB3B3" stroke="black" stroke-width="7" stroke-linecap="round" stroke-linejoin="round"/>
<path d="M697.371 587.387H275.957L378.082 366.459H799.496L697.371 587.387Z" fill="#FFD400" stroke="black" stroke-width="7" stroke-linecap="round" stroke-linejoin="round"/>
<path d="M196.974 390.196L216.66 413.732L391.788 267.143L372.102 243.606L196.974 390.196Z" fill="#FFB3B3" stroke="black" stroke-width="7" stroke-linecap="round" stroke-linejoin="round"/>
<path d="M898.777 295.854H558.098L728.437 10.6765L898.777 295.854Z" fill="#FFD400" stroke="black" stroke-width="7" stroke-linecap="round" stroke-linejoin="round"/>
<path d="M728.806 106.378C738.125 106.378 747.062 110.081 753.651 116.673C760.24 123.265 763.942 132.205 763.942 141.528C763.942 160.936 728.806 211.974 728.806 211.974C728.806 211.974 693.676 160.936 693.676 141.528C693.675 136.912 694.583 132.341 696.348 128.077C698.113 123.812 700.701 119.937 703.963 116.673C707.225 113.409 711.098 110.82 715.361 109.053C719.623 107.287 724.192 106.378 728.806 106.378Z" fill="black"/>
<path d="M636.172 422.697L612.551 442.338L758.692 618.231L782.313 598.591L636.172 422.697Z" fill="#FFB3B3" stroke="black" stroke-width="7.00874" stroke-linecap="round" stroke-linejoin="round"/>
<path d="M476.215 463.71L452.688 483.404L599.221 658.599L622.748 638.905L476.215 463.71Z" fill="#FFB3B3" stroke="black" stroke-width="7" stroke-linecap="round" stroke-linejoin="round"/>
<path d="M597.547 451.016L574.02 470.709L643.876 554.229L667.403 534.536L597.547 451.016Z" fill="#FFB3B3" stroke="black" stroke-width="7" stroke-linecap="round" stroke-linejoin="round"/>
<path d="M211.712 736.776C287.102 736.776 348.218 675.637 348.218 600.218C348.218 524.799 287.102 463.66 211.712 463.66C136.323 463.66 75.207 524.799 75.207 600.218C75.207 675.637 136.323 736.776 211.712 736.776Z" fill="#FF5050" stroke="black" stroke-width="7" stroke-linecap="round" stroke-linejoin="round"/>
<path d="M240.321 600.205L284.339 644.246L255.733 672.907L211.709 628.866L167.698 672.907L139.086 644.246L183.103 600.205L139.086 556.171L167.698 527.554L211.709 571.588L255.733 527.554L284.339 556.171L240.321 600.205Z" fill="#FFF9DE" stroke="black" stroke-width="7" stroke-linecap="round" stroke-linejoin="round"/>
</g>
<defs>
<clipPath id="clip0">
<rect width="901" height="739" fill="white"/>
</clipPath>
</defs>
</svg>
